; generated by Slic3r 1.3.0 on 2022-11-22 at 08:31:57

; external perimeters extrusion width = 0.44mm (3.38mm^3/s)
; perimeters extrusion width = 0.48mm (7.54mm^3/s)
; infill extrusion width = 0.48mm (10.05mm^3/s)
; solid infill extrusion width = 0.48mm (2.51mm^3/s)
; top infill extrusion width = 0.48mm (1.88mm^3/s)

M107
M190 S40 ; set bed temperature and wait for it to be reached
M104 S220 ; set temperature
G28 ; home all axes
G1 Z5 F5000 ; lift nozzle


M109 S220 ; set temperature and wait for it to be reached
G21 ; set units to millimeters
G90 ; use absolute coordinates
M82 ; use absolute distances for extrusion
G92 E0
G1 Z0.150 F7800.000
G1 E-2.00000 F2400.00000
G92 E0
G1 X42.730 Y47.589 F7800.000
G1 E2.00000 F2400.00000
G1 F1800
G1 X43.048 Y47.310 E2.01111
G1 X43.551 Y46.911 E2.02797
G1 X44.280 Y46.416 E2.05111
G1 X44.846 Y46.090 E2.06827
G1 X45.223 Y45.898 E2.07937
G1 X46.032 Y45.547 E2.10252
G1 X46.427 Y45.405 E2.11354
G1 X47.054 Y45.215 E2.13076
G1 X47.919 Y45.022 E2.15402
G1 X48.561 Y44.927 E2.17107
G1 X48.982 Y44.888 E2.18216
G1 X49.692 Y44.860 E2.20082
G1 X160.308 Y44.860 E5.10537
G1 X161.016 Y44.888 E5.12400
G1 X161.669 Y44.957 E5.14122
G1 X162.314 Y45.066 E5.15841
G1 X162.950 Y45.216 E5.17557
G1 X163.575 Y45.405 E5.19270
G1 X164.179 Y45.631 E5.20964
G1 X164.780 Y45.899 E5.22691
G1 X165.362 Y46.204 E5.24417
G1 X165.912 Y46.538 E5.26107
G1 X166.456 Y46.916 E5.27847
G1 X166.966 Y47.321 E5.29556
G1 X167.447 Y47.755 E5.31258
G1 X167.905 Y48.224 E5.32980
G1 X168.330 Y48.716 E5.34686
G1 X168.723 Y49.235 E5.36395
G1 X169.084 Y49.780 E5.38113
G1 X169.412 Y50.349 E5.39836
G1 X169.700 Y50.929 E5.41536
G1 X169.954 Y51.535 E5.43261
G1 X170.169 Y52.154 E5.44982
G1 X170.343 Y52.781 E5.46692
G1 X170.478 Y53.418 E5.48400
G1 X170.573 Y54.067 E5.50123
G1 X170.627 Y54.712 E5.51824
G1 X170.640 Y55.191 E5.53083
G1 X170.638 Y114.924 E7.09929
G1 X170.612 Y115.519 E7.11491
G1 X170.543 Y116.170 E7.13212
G1 X170.435 Y116.808 E7.14910
G1 X170.285 Y117.446 E7.16632
G1 X170.097 Y118.068 E7.18338
G1 X169.866 Y118.687 E7.20071
G1 X169.603 Y119.276 E7.21767
G1 X169.298 Y119.859 E7.23494
G1 X168.962 Y120.414 E7.25197
G1 X168.587 Y120.951 E7.26917
G1 X168.180 Y121.464 E7.28638
G1 X167.749 Y121.943 E7.30329
G1 X167.282 Y122.399 E7.32043
G1 X166.785 Y122.828 E7.33767
G1 X166.263 Y123.224 E7.35486
G1 X165.723 Y123.582 E7.37189
G1 X165.151 Y123.912 E7.38923
G1 X164.561 Y124.204 E7.40651
G1 X163.971 Y124.451 E7.42330
G1 X163.355 Y124.666 E7.44045
G1 X162.721 Y124.843 E7.45772
G1 X162.082 Y124.978 E7.47486
G1 X161.445 Y125.072 E7.49179
G1 X160.669 Y125.131 E7.51221
G1 X49.691 Y125.140 E10.42627
G1 X48.978 Y125.112 E10.44501
G1 X48.333 Y125.044 E10.46203
G1 X47.691 Y124.935 E10.47913
G1 X47.051 Y124.784 E10.49639
G1 X46.427 Y124.595 E10.51352
G1 X45.820 Y124.369 E10.53052
G1 X45.224 Y124.103 E10.54765
G1 X44.640 Y123.797 E10.56497
G1 X44.084 Y123.459 E10.58206
G1 X43.553 Y123.090 E10.59906
G1 X43.046 Y122.689 E10.61602
G1 X42.551 Y122.243 E10.63351
G1 X42.102 Y121.783 E10.65040
G1 X41.665 Y121.278 E10.66793
G1 X41.274 Y120.760 E10.68497
G1 X40.916 Y120.220 E10.70198
G1 X40.582 Y119.641 E10.71955
G1 X40.299 Y119.068 E10.73632
G1 X40.050 Y118.473 E10.75325
G1 X39.836 Y117.862 E10.77025
G1 X39.657 Y117.221 E10.78772
G1 X39.519 Y116.568 E10.80526
G1 X39.389 Y115.528 E10.83278
G1 X39.362 Y114.923 E10.84868
G1 X39.360 Y55.191 E12.41711
G1 X39.373 Y54.712 E12.42970
G1 X39.455 Y53.845 E12.45258
G1 X39.564 Y53.197 E12.46982
G1 X39.657 Y52.780 E12.48103
G1 X39.907 Y51.921 E12.50452
G1 X40.135 Y51.312 E12.52160
G1 X40.300 Y50.931 E12.53252
G1 X40.699 Y50.146 E12.55564
G1 X40.915 Y49.781 E12.56677
G1 X41.275 Y49.238 E12.58388
G1 X41.821 Y48.534 E12.60725
G1 X42.253 Y48.055 E12.62420
G1 X42.686 Y47.630 E12.64013
G1 X43.013 Y47.901 F7800.000
G1 F1800
G1 X43.804 Y47.248 E12.66707
G1 X44.500 Y46.775 E12.68917
G1 X45.043 Y46.462 E12.70563
G1 X45.408 Y46.276 E12.71638
G1 X46.181 Y45.941 E12.73850
G1 X46.563 Y45.803 E12.74917
G1 X47.165 Y45.621 E12.76569
G1 X47.991 Y45.437 E12.78791
G1 X48.608 Y45.346 E12.80427
G1 X49.015 Y45.308 E12.81501
G1 X49.695 Y45.281 E12.83289
G1 X160.304 Y45.281 E15.73727
G1 X160.983 Y45.307 E15.75511
G1 X161.609 Y45.373 E15.77164
G1 X162.228 Y45.479 E15.78812
G1 X162.839 Y45.622 E15.80459
G1 X163.438 Y45.804 E15.82103
G1 X164.018 Y46.020 E15.83728
G1 X164.594 Y46.277 E15.85385
G1 X165.153 Y46.569 E15.87041
G1 X165.681 Y46.890 E15.88663
G1 X166.203 Y47.253 E15.90332
G1 X166.692 Y47.641 E15.91972
G1 X167.154 Y48.058 E15.93605
G1 X167.594 Y48.507 E15.95257
G1 X168.001 Y48.980 E15.96894
G1 X168.378 Y49.477 E15.98534
G1 X168.725 Y50.000 E16.00182
G1 X169.040 Y50.546 E16.01836
G1 X169.316 Y51.102 E16.03467
G1 X169.560 Y51.683 E16.05122
G1 X169.766 Y52.277 E16.06772
G1 X169.934 Y52.879 E16.08413
G1 X170.063 Y53.490 E16.10052
G1 X170.154 Y54.113 E16.11705
G1 X170.206 Y54.732 E16.13338
G1 X170.219 Y55.195 E16.14553
G1 X170.217 Y114.914 E17.71364
G1 X170.192 Y115.485 E17.72865
G1 X170.126 Y116.111 E17.74517
G1 X170.023 Y116.723 E17.76146
G1 X169.879 Y117.335 E17.77798
G1 X169.698 Y117.932 E17.79435
G1 X169.477 Y118.525 E17.81098
G1 X169.225 Y119.091 E17.82725
G1 X168.932 Y119.650 E17.84382
G1 X168.610 Y120.182 E17.86016
G1 X168.251 Y120.698 E17.87666
G1 X167.860 Y121.191 E17.89317
G1 X167.446 Y121.650 E17.90940
G1 X166.999 Y122.088 E17.92584
G1 X166.522 Y122.500 E17.94238
G1 X166.021 Y122.879 E17.95888
G1 X165.503 Y123.224 E17.97522
G1 X164.954 Y123.540 E17.99185
G1 X164.388 Y123.820 E18.00844
G1 X163.822 Y124.058 E18.02455
G1 X163.231 Y124.264 E18.04100
G1 X162.623 Y124.433 E18.05757
G1 X162.010 Y124.563 E18.07402
G1 X161.398 Y124.653 E18.09026
G1 X160.414 Y124.717 E18.11617
G1 X49.695 Y124.719 E21.02342
G1 X49.011 Y124.692 E21.04138
G1 X48.393 Y124.627 E21.05772
G1 X47.777 Y124.522 E21.07412
G1 X47.163 Y124.378 E21.09068
G1 X46.564 Y124.197 E21.10711
G1 X45.981 Y123.980 E21.12343
G1 X45.410 Y123.725 E21.13987
G1 X44.849 Y123.432 E21.15648
G1 X44.315 Y123.108 E21.17288
G1 X43.805 Y122.753 E21.18919
G1 X43.319 Y122.368 E21.20547
G1 X42.844 Y121.941 E21.22224
G1 X42.413 Y121.500 E21.23845
G1 X41.994 Y121.015 E21.25527
G1 X41.619 Y120.518 E21.27162
G1 X41.275 Y120.000 E21.28794
G1 X40.955 Y119.444 E21.30479
G1 X40.683 Y118.894 E21.32089
G1 X40.443 Y118.324 E21.33714
G1 X40.239 Y117.737 E21.35345
G1 X40.067 Y117.123 E21.37021
G1 X39.934 Y116.496 E21.38703
G1 X39.808 Y115.494 E21.41354
G1 X39.783 Y114.913 E21.42882
G1 X39.781 Y55.195 E22.99690
G1 X39.794 Y54.732 E23.00906
G1 X39.872 Y53.903 E23.03091
G1 X39.976 Y53.282 E23.04745
G1 X40.066 Y52.878 E23.05831
G1 X40.305 Y52.058 E23.08074
G1 X40.524 Y51.474 E23.09713
G1 X40.684 Y51.104 E23.10771
G1 X41.065 Y50.354 E23.12980
G1 X41.274 Y50.001 E23.14057
G1 X41.620 Y49.480 E23.15699
G1 X42.141 Y48.808 E23.17931
G1 X42.556 Y48.348 E23.19557
G1 X42.969 Y47.942 E23.21079
G1 X43.296 Y48.213 F7800.000
G1 F1800
G1 X44.056 Y47.585 E23.23670
G1 X44.720 Y47.134 E23.25777
G1 X45.240 Y46.834 E23.27353
G1 X45.593 Y46.654 E23.28393
G1 X46.330 Y46.335 E23.30501
G1 X47.276 Y46.027 E23.33115
G1 X48.063 Y45.852 E23.35232
G1 X49.048 Y45.727 E23.37837
G1 X49.698 Y45.702 E23.39547
G1 X160.301 Y45.702 E26.29968
G1 X160.950 Y45.727 E26.31674
G1 X161.550 Y45.790 E26.33257
G1 X162.143 Y45.891 E26.34836
G1 X162.728 Y46.029 E26.36413
G1 X163.301 Y46.202 E26.37987
G1 X163.857 Y46.409 E26.39545
G1 X164.409 Y46.655 E26.41131
G1 X164.944 Y46.935 E26.42717
G1 X165.450 Y47.242 E26.44271
G1 X165.950 Y47.589 E26.45869
G1 X166.418 Y47.961 E26.47439
G1 X166.861 Y48.360 E26.49004
G1 X167.282 Y48.791 E26.50586
G1 X167.672 Y49.243 E26.52154
G1 X168.034 Y49.719 E26.53725
G1 X168.366 Y50.220 E26.55303
G1 X168.668 Y50.743 E26.56887
G1 X168.932 Y51.276 E26.58449
G1 X169.166 Y51.832 E26.60034
G1 X169.363 Y52.401 E26.61615
G1 X169.524 Y52.977 E26.63186
G1 X169.648 Y53.562 E26.64757
G1 X169.736 Y54.159 E26.66339
G1 X169.786 Y54.752 E26.67903
G1 X169.796 Y114.904 E28.25851
G1 X169.773 Y115.452 E28.27291
G1 X169.709 Y116.051 E28.28873
G1 X169.610 Y116.637 E28.30433
G1 X169.472 Y117.224 E28.32016
G1 X169.300 Y117.796 E28.33584
G1 X169.088 Y118.364 E28.35176
G1 X168.847 Y118.906 E28.36735
G1 X168.566 Y119.441 E28.38321
G1 X168.258 Y119.951 E28.39886
G1 X167.914 Y120.446 E28.41467
G1 X167.540 Y120.917 E28.43048
G1 X167.143 Y121.357 E28.44603
G1 X166.715 Y121.777 E28.46178
G1 X166.258 Y122.171 E28.47762
G1 X165.779 Y122.535 E28.49342
G1 X165.283 Y122.865 E28.50906
G1 X164.757 Y123.168 E28.52499
G1 X164.215 Y123.436 E28.54087
G1 X163.673 Y123.664 E28.55631
G1 X163.107 Y123.861 E28.57207
G1 X162.524 Y124.024 E28.58794
G1 X161.938 Y124.148 E28.60369
G1 X161.351 Y124.235 E28.61925
G1 X160.404 Y124.296 E28.64419
G1 X49.698 Y124.298 E31.55110
G1 X49.044 Y124.272 E31.56827
G1 X48.452 Y124.210 E31.58392
G1 X47.862 Y124.110 E31.59963
G1 X47.274 Y123.972 E31.61549
G1 X46.700 Y123.798 E31.63123
G1 X46.142 Y123.591 E31.64686
G1 X45.595 Y123.347 E31.66260
G1 X45.058 Y123.066 E31.67850
G1 X44.546 Y122.756 E31.69422
G1 X44.058 Y122.416 E31.70984
G1 X43.592 Y122.047 E31.72543
G1 X43.137 Y121.639 E31.74149
G1 X42.724 Y121.216 E31.75702
G1 X42.323 Y120.752 E31.77312
G1 X41.963 Y120.276 E31.78878
G1 X41.634 Y119.780 E31.80441
G1 X41.327 Y119.248 E31.82054
G1 X41.067 Y118.721 E31.83597
G1 X40.837 Y118.175 E31.85154
G1 X40.641 Y117.613 E31.86716
G1 X40.476 Y117.025 E31.88321
G1 X40.349 Y116.425 E31.89931
G1 X40.228 Y115.461 E31.92482
G1 X40.204 Y114.903 E31.93947
G1 X40.215 Y54.752 E33.51893
G1 X40.289 Y53.962 E33.53976
G1 X40.389 Y53.367 E33.55560
G1 X40.476 Y52.977 E33.56610
G1 X40.704 Y52.195 E33.58747
G1 X41.068 Y51.277 E33.61340
G1 X41.431 Y50.563 E33.63445
G1 X41.964 Y49.722 E33.66059
G1 X42.461 Y49.082 E33.68187
G1 X42.858 Y48.641 E33.69745
G1 X43.252 Y48.254 E33.71195
G1 X43.579 Y48.525 F7800.000
G1 F1800
G1 X44.309 Y47.922 E33.73682
G1 X44.940 Y47.493 E33.75686
G1 X45.778 Y47.032 E33.78197
G1 X46.479 Y46.729 E33.80201
G1 X47.388 Y46.434 E33.82710
G1 X48.136 Y46.266 E33.84723
G1 X49.081 Y46.147 E33.87225
G1 X49.702 Y46.123 E33.88856
G1 X160.298 Y46.123 E36.79259
G1 X160.918 Y46.147 E36.80888
G1 X161.490 Y46.207 E36.82401
G1 X162.057 Y46.303 E36.83910
G1 X162.616 Y46.435 E36.85418
G1 X163.165 Y46.600 E36.86922
G1 X163.696 Y46.798 E36.88411
G1 X164.224 Y47.033 E36.89928
G1 X164.735 Y47.301 E36.91443
G1 X165.219 Y47.594 E36.92929
G1 X165.697 Y47.926 E36.94456
G1 X166.145 Y48.281 E36.95957
G1 X166.568 Y48.663 E36.97453
G1 X166.971 Y49.074 E36.98965
G1 X167.344 Y49.506 E37.00465
G1 X167.689 Y49.962 E37.01966
G1 X168.007 Y50.440 E37.03475
G1 X168.295 Y50.939 E37.04988
G1 X168.548 Y51.449 E37.06482
G1 X168.772 Y51.981 E37.07997
G1 X168.961 Y52.524 E37.09508
G1 X169.115 Y53.075 E37.11010
G1 X169.233 Y53.635 E37.12511
G1 X169.317 Y54.205 E37.14024
G1 X169.365 Y54.772 E37.15519
G1 X169.375 Y114.894 E38.73388
G1 X169.353 Y115.419 E38.74768
G1 X169.293 Y115.992 E38.76280
G1 X169.198 Y116.552 E38.77772
G1 X169.066 Y117.113 E38.79284
G1 X168.901 Y117.660 E38.80783
G1 X168.699 Y118.202 E38.82305
G1 X168.468 Y118.721 E38.83795
G1 X168.201 Y119.233 E38.85311
G1 X167.906 Y119.720 E38.86808
G1 X167.577 Y120.193 E38.88319
G1 X167.220 Y120.644 E38.89830
G1 X166.841 Y121.064 E38.91317
G1 X166.431 Y121.466 E38.92822
G1 X165.995 Y121.843 E38.94336
G1 X165.537 Y122.190 E38.95846
G1 X165.062 Y122.506 E38.97342
G1 X164.560 Y122.796 E38.98864
G1 X164.042 Y123.052 E39.00382
G1 X163.524 Y123.270 E39.01858
G1 X162.983 Y123.459 E39.03364
G1 X162.426 Y123.614 E39.04881
G1 X161.865 Y123.733 E39.06387
G1 X161.305 Y123.816 E39.07875
G1 X160.394 Y123.875 E39.10272
G1 X49.701 Y123.877 E42.00928
G1 X49.078 Y123.853 E42.02567
G1 X48.511 Y123.793 E42.04063
G1 X47.947 Y123.698 E42.05565
G1 X47.385 Y123.566 E42.07080
G1 X46.837 Y123.400 E42.08585
G1 X46.303 Y123.201 E42.10079
G1 X45.780 Y122.969 E42.11584
G1 X45.267 Y122.700 E42.13104
G1 X44.778 Y122.404 E42.14606
G1 X44.310 Y122.079 E42.16100
G1 X43.865 Y121.727 E42.17591
G1 X43.430 Y121.336 E42.19125
G1 X43.035 Y120.932 E42.20610
G1 X42.652 Y120.489 E42.22148
G1 X42.308 Y120.034 E42.23645
G1 X41.993 Y119.560 E42.25140
G1 X41.700 Y119.052 E42.26681
G1 X41.451 Y118.548 E42.28156
G1 X41.231 Y118.026 E42.29645
G1 X41.043 Y117.488 E42.31139
G1 X40.885 Y116.926 E42.32672
G1 X40.764 Y116.353 E42.34210
G1 X40.648 Y115.427 E42.36661
G1 X40.625 Y114.893 E42.38064
G1 X40.635 Y54.772 E43.95931
G1 X40.706 Y54.021 E43.97912
G1 X40.885 Y53.075 E44.00440
G1 X41.102 Y52.332 E44.02471
G1 X41.451 Y51.451 E44.04961
G1 X41.797 Y50.771 E44.06963
G1 X42.309 Y49.964 E44.09472
G1 X42.781 Y49.355 E44.11494
G1 X43.161 Y48.934 E44.12984
G1 X43.535 Y48.566 E44.14362
G1 X43.862 Y48.837 F7800.000
G1 F1800
G1 X44.562 Y48.259 E44.16747
G1 X45.160 Y47.852 E44.18647
G1 X45.963 Y47.410 E44.21053
G1 X46.628 Y47.123 E44.22954
G1 X47.499 Y46.840 E44.25359
G1 X48.208 Y46.681 E44.27267
G1 X49.114 Y46.567 E44.29665
G1 X49.705 Y46.544 E44.31218
G1 X160.295 Y46.544 E47.21604
G1 X160.885 Y46.567 E47.23155
G1 X161.431 Y46.624 E47.24597
G1 X161.972 Y46.716 E47.26037
G1 X162.505 Y46.841 E47.27475
G1 X163.028 Y46.999 E47.28911
G1 X163.535 Y47.187 E47.30331
G1 X164.038 Y47.411 E47.31777
G1 X164.526 Y47.666 E47.33223
G1 X164.988 Y47.946 E47.34641
G1 X165.444 Y48.262 E47.36097
G1 X165.871 Y48.601 E47.37529
G1 X166.275 Y48.965 E47.38956
G1 X166.659 Y49.357 E47.40398
G1 X167.015 Y49.770 E47.41828
G1 X167.345 Y50.204 E47.43260
G1 X167.648 Y50.660 E47.44699
G1 X167.923 Y51.136 E47.46143
G1 X168.165 Y51.623 E47.47568
G1 X168.378 Y52.130 E47.49013
G1 X168.558 Y52.648 E47.50454
G1 X168.705 Y53.174 E47.51887
G1 X168.819 Y53.707 E47.53319
G1 X168.899 Y54.251 E47.54762
G1 X168.944 Y54.792 E47.56188
G1 X168.954 Y114.884 E49.13979
G1 X168.933 Y115.386 E49.15298
G1 X168.876 Y115.932 E49.16740
G1 X168.785 Y116.467 E49.18163
G1 X168.660 Y117.002 E49.19606
G1 X168.503 Y117.523 E49.21036
G1 X168.310 Y118.041 E49.22487
G1 X168.090 Y118.536 E49.23909
G1 X167.835 Y119.024 E49.25355
G1 X167.554 Y119.489 E49.26782
G1 X167.240 Y119.940 E49.28224
G1 X166.900 Y120.370 E49.29665
G1 X166.538 Y120.772 E49.31084
G1 X166.148 Y121.154 E49.32519
G1 X165.732 Y121.514 E49.33963
G1 X165.295 Y121.846 E49.35404
G1 X164.842 Y122.147 E49.36831
G1 X164.363 Y122.423 E49.38282
G1 X163.870 Y122.668 E49.39730
G1 X163.375 Y122.876 E49.41139
G1 X162.858 Y123.056 E49.42575
G1 X162.328 Y123.205 E49.44022
G1 X161.793 Y123.319 E49.45458
G1 X161.258 Y123.398 E49.46878
G1 X160.384 Y123.454 E49.49178
G1 X49.705 Y123.456 E52.39799
G1 X49.111 Y123.433 E52.41360
G1 X48.570 Y123.376 E52.42787
G1 X48.032 Y123.285 E52.44220
G1 X47.496 Y123.160 E52.45665
G1 X46.973 Y123.002 E52.47100
G1 X46.464 Y122.812 E52.48526
G1 X45.965 Y122.590 E52.49961
G1 X45.476 Y122.335 E52.51411
G1 X45.009 Y122.052 E52.52843
G1 X44.563 Y121.742 E52.54268
G1 X44.138 Y121.406 E52.55691
G1 X43.724 Y121.034 E52.57154
G1 X43.346 Y120.648 E52.58571
G1 X42.981 Y120.226 E52.60038
G1 X42.653 Y119.792 E52.61466
G1 X42.352 Y119.340 E52.62891
G1 X42.072 Y118.855 E52.64361
G1 X41.835 Y118.375 E52.65769
G1 X41.625 Y117.876 E52.67189
G1 X41.445 Y117.364 E52.68614
G1 X41.295 Y116.828 E52.70076
G1 X41.179 Y116.281 E52.71543
G1 X41.068 Y115.393 E52.73893
G1 X41.046 Y114.883 E52.75233
G1 X41.056 Y54.792 E54.33022
G1 X41.123 Y54.079 E54.34901
G1 X41.295 Y53.173 E54.37323
G1 X41.500 Y52.469 E54.39249
G1 X41.835 Y51.624 E54.41636
G1 X42.163 Y50.980 E54.43534
G1 X42.654 Y50.206 E54.45939
G1 X43.101 Y49.629 E54.47856
G1 X43.463 Y49.227 E54.49277
G1 X43.818 Y48.878 E54.50584
G1 X44.144 Y49.149 F7800.000
G1 F1800
G1 X44.815 Y48.595 E54.52866
G1 X45.380 Y48.211 E54.54662
G1 X46.149 Y47.789 E54.56964
G1 X46.777 Y47.517 E54.58761
G1 X47.610 Y47.246 E54.61061
G1 X48.280 Y47.096 E54.62866
G1 X49.147 Y46.987 E54.65159
G1 X49.708 Y46.965 E54.66635
G1 X160.291 Y46.965 E57.57003
G1 X160.852 Y46.987 E57.58476
G1 X161.372 Y47.041 E57.59848
G1 X161.886 Y47.128 E57.61218
G1 X162.394 Y47.247 E57.62587
G1 X162.892 Y47.397 E57.63953
G1 X163.374 Y47.576 E57.65305
G1 X163.853 Y47.789 E57.66681
G1 X164.317 Y48.032 E57.68057
G1 X164.757 Y48.298 E57.69406
G1 X165.190 Y48.599 E57.70791
