; generated by Slic3r 1.3.0 on 2023-03-12 at 18:07:35

; external perimeters extrusion width = 0.44mm (3.38mm^3/s)
; perimeters extrusion width = 0.48mm (7.54mm^3/s)
; infill extrusion width = 0.48mm (10.05mm^3/s)
; solid infill extrusion width = 0.48mm (2.51mm^3/s)
; top infill extrusion width = 0.48mm (1.88mm^3/s)
; support material extrusion width = 0.44mm (6.76mm^3/s)

M107
M190 S40 ; set bed temperature and wait for it to be reached
M104 S220 ; set temperature
G28 ; home all axes
G1 Z5 F5000 ; lift nozzle


M109 S220 ; set temperature and wait for it to be reached
G21 ; set units to millimeters
G90 ; use absolute coordinates
M82 ; use absolute distances for extrusion
G92 E0
G1 Z0.150 F7800.000
G1 E-2.00000 F2400.00000
G92 E0
G1 X38.478 Y42.841 F7800.000
G1 E2.00000 F2400.00000
G1 F1800
G1 X38.798 Y42.560 E2.01117
G1 X39.301 Y42.161 E2.02804
G1 X40.025 Y41.669 E2.05102
G1 X40.390 Y41.453 E2.06216
G1 X40.973 Y41.147 E2.07945
G1 X41.783 Y40.797 E2.10260
G1 X42.399 Y40.583 E2.11974
G1 X42.805 Y40.465 E2.13083
G1 X43.669 Y40.272 E2.15409
G1 X44.083 Y40.206 E2.16510
G1 X44.733 Y40.138 E2.18227
G1 X45.442 Y40.110 E2.20088
G1 X168.558 Y40.110 E5.43366
G1 X169.270 Y40.138 E5.45237
G1 X169.921 Y40.207 E5.46956
G1 X170.556 Y40.315 E5.48649
G1 X171.192 Y40.464 E5.50364
G1 X171.821 Y40.654 E5.52087
G1 X172.437 Y40.884 E5.53815
G1 X173.029 Y41.148 E5.55518
G1 X173.607 Y41.451 E5.57230
G1 X174.171 Y41.793 E5.58962
G1 X174.704 Y42.165 E5.60669
G1 X175.217 Y42.572 E5.62390
G1 X175.697 Y43.005 E5.64087
G1 X176.153 Y43.471 E5.65797
G1 X176.579 Y43.965 E5.67511
G1 X176.975 Y44.488 E5.69233
G1 X177.336 Y45.033 E5.70950
G1 X177.661 Y45.596 E5.72656
G1 X177.951 Y46.183 E5.74376
G1 X178.203 Y46.782 E5.76083
G1 X178.419 Y47.404 E5.77812
G1 X178.592 Y48.026 E5.79507
G1 X178.728 Y48.666 E5.81224
G1 X178.822 Y49.310 E5.82935
G1 X178.877 Y49.967 E5.84664
G1 X178.890 Y50.443 E5.85916
G1 X178.888 Y115.674 E7.57199
G1 X178.862 Y116.267 E7.58757
G1 X178.794 Y116.912 E7.60461
G1 X178.684 Y117.562 E7.62193
G1 X178.534 Y118.198 E7.63906
G1 X178.345 Y118.823 E7.65621
G1 X178.116 Y119.436 E7.67340
G1 X177.852 Y120.028 E7.69043
G1 X177.550 Y120.606 E7.70755
G1 X177.211 Y121.165 E7.72472
G1 X176.838 Y121.701 E7.74186
G1 X176.432 Y122.212 E7.75900
G1 X175.993 Y122.699 E7.77622
G1 X175.534 Y123.147 E7.79305
G1 X175.029 Y123.583 E7.81057
G1 X174.512 Y123.975 E7.82760
G1 X173.970 Y124.335 E7.84469
G1 X173.400 Y124.663 E7.86197
G1 X172.822 Y124.949 E7.87890
G1 X172.228 Y125.199 E7.89581
G1 X171.601 Y125.417 E7.91325
G1 X170.976 Y125.591 E7.93030
G1 X170.338 Y125.727 E7.94742
G1 X169.699 Y125.821 E7.96437
G1 X169.269 Y125.862 E7.97573
G1 X168.673 Y125.888 E7.99137
G1 X45.442 Y125.890 E11.22717
G1 X44.715 Y125.861 E11.24629
G1 X44.074 Y125.792 E11.26322
G1 X43.435 Y125.684 E11.28023
G1 X42.799 Y125.534 E11.29738
G1 X42.166 Y125.341 E11.31476
G1 X41.565 Y125.116 E11.33162
G1 X40.977 Y124.855 E11.34851
G1 X40.389 Y124.546 E11.36595
G1 X39.842 Y124.215 E11.38273
G1 X39.306 Y123.842 E11.39989
G1 X38.795 Y123.437 E11.41701
G1 X38.298 Y122.991 E11.43454
G1 X37.851 Y122.533 E11.45133
G1 X37.415 Y122.028 E11.46886
G1 X37.025 Y121.511 E11.48587
G1 X36.667 Y120.973 E11.50284
G1 X36.332 Y120.390 E11.52049
G1 X36.049 Y119.818 E11.53726
G1 X35.799 Y119.222 E11.55422
G1 X35.586 Y118.612 E11.57119
G1 X35.407 Y117.972 E11.58862
G1 X35.269 Y117.317 E11.60620
G1 X35.150 Y116.395 E11.63062
G1 X35.112 Y115.673 E11.64960
G1 X35.110 Y50.441 E13.36246
G1 X35.124 Y49.955 E13.37524
G1 X35.205 Y49.093 E13.39797
G1 X35.314 Y48.448 E13.41513
G1 X35.408 Y48.026 E13.42650
G1 X35.657 Y47.171 E13.44987
G1 X35.799 Y46.777 E13.46088
G1 X36.050 Y46.181 E13.47785
G1 X36.450 Y45.395 E13.50101
G1 X36.666 Y45.029 E13.51218
G1 X37.025 Y44.488 E13.52923
G1 X37.570 Y43.785 E13.55259
G1 X38.003 Y43.305 E13.56957
G1 X38.434 Y42.882 E13.58543
G1 X38.761 Y43.152 F7800.000
G1 F1800
G1 X39.554 Y42.498 E13.61242
G1 X40.245 Y42.028 E13.63438
G1 X40.599 Y41.818 E13.64517
G1 X41.158 Y41.525 E13.66175
G1 X41.931 Y41.191 E13.68387
G1 X42.523 Y40.985 E13.70031
G1 X42.916 Y40.871 E13.71105
G1 X43.741 Y40.687 E13.73327
G1 X44.142 Y40.623 E13.74393
G1 X44.766 Y40.557 E13.76040
G1 X45.445 Y40.531 E13.77824
G1 X168.554 Y40.531 E17.01084
G1 X169.237 Y40.558 E17.02877
G1 X169.861 Y40.624 E17.04526
G1 X170.471 Y40.727 E17.06151
G1 X171.081 Y40.870 E17.07796
G1 X171.684 Y41.053 E17.09450
G1 X172.276 Y41.273 E17.11107
G1 X172.844 Y41.527 E17.12741
G1 X173.398 Y41.817 E17.14384
G1 X173.939 Y42.145 E17.16046
G1 X174.451 Y42.501 E17.17683
G1 X174.943 Y42.892 E17.19334
G1 X175.404 Y43.308 E17.20963
G1 X175.841 Y43.754 E17.22604
G1 X176.250 Y44.229 E17.24248
G1 X176.630 Y44.730 E17.25900
G1 X176.977 Y45.253 E17.27548
G1 X177.288 Y45.793 E17.29184
G1 X177.567 Y46.356 E17.30835
G1 X177.809 Y46.931 E17.32473
G1 X178.016 Y47.528 E17.34131
G1 X178.183 Y48.125 E17.35758
G1 X178.313 Y48.738 E17.37405
G1 X178.404 Y49.357 E17.39047
G1 X178.456 Y49.986 E17.40706
G1 X178.469 Y50.447 E17.41915
G1 X178.467 Y115.664 E19.13163
G1 X178.443 Y116.234 E19.14660
G1 X178.377 Y116.853 E19.16296
G1 X178.272 Y117.477 E19.17957
G1 X178.128 Y118.086 E19.19601
G1 X177.947 Y118.686 E19.21246
G1 X177.727 Y119.275 E19.22895
G1 X177.474 Y119.843 E19.24529
G1 X177.184 Y120.398 E19.26173
G1 X176.859 Y120.934 E19.27820
G1 X176.501 Y121.448 E19.29464
G1 X176.112 Y121.939 E19.31109
G1 X175.690 Y122.406 E19.32761
G1 X175.251 Y122.836 E19.34376
G1 X174.766 Y123.254 E19.36056
G1 X174.270 Y123.630 E19.37691
G1 X173.750 Y123.976 E19.39331
G1 X173.203 Y124.291 E19.40988
G1 X172.648 Y124.566 E19.42614
G1 X172.079 Y124.805 E19.44236
G1 X171.477 Y125.015 E19.45909
G1 X170.877 Y125.182 E19.47545
G1 X170.265 Y125.312 E19.49188
G1 X169.652 Y125.403 E19.50814
G1 X169.235 Y125.443 E19.51913
G1 X168.664 Y125.467 E19.53417
G1 X45.446 Y125.469 E22.76962
G1 X44.749 Y125.441 E22.78793
G1 X44.134 Y125.375 E22.80418
G1 X43.521 Y125.271 E22.82050
G1 X42.911 Y125.127 E22.83696
G1 X42.303 Y124.943 E22.85363
G1 X41.726 Y124.728 E22.86981
G1 X41.162 Y124.476 E22.88602
G1 X40.598 Y124.181 E22.90275
G1 X40.073 Y123.863 E22.91886
G1 X39.558 Y123.505 E22.93532
G1 X39.068 Y123.117 E22.95175
G1 X38.592 Y122.688 E22.96856
G1 X38.163 Y122.250 E22.98468
G1 X37.744 Y121.765 E23.00148
G1 X37.369 Y121.269 E23.01781
G1 X37.026 Y120.752 E23.03410
G1 X36.704 Y120.194 E23.05103
G1 X36.433 Y119.644 E23.06712
G1 X36.193 Y119.073 E23.08339
G1 X35.989 Y118.487 E23.09968
G1 X35.817 Y117.874 E23.11640
G1 X35.684 Y117.246 E23.13326
G1 X35.569 Y116.355 E23.15685
G1 X35.533 Y115.663 E23.17503
G1 X35.531 Y50.445 E24.88755
G1 X35.544 Y49.975 E24.89987
G1 X35.622 Y49.152 E24.92160
G1 X35.726 Y48.533 E24.93806
G1 X35.817 Y48.125 E24.94906
G1 X36.055 Y47.308 E24.97139
G1 X36.193 Y46.926 E24.98205
G1 X36.434 Y46.355 E24.99833
G1 X36.815 Y45.604 E25.02046
G1 X37.025 Y45.249 E25.03127
G1 X37.370 Y44.730 E25.04764
G1 X37.890 Y44.058 E25.06994
G1 X38.306 Y43.598 E25.08623
G1 X38.717 Y43.194 E25.10138
G1 X39.044 Y43.464 F7800.000
G1 F1800
G1 X39.807 Y42.835 E25.12734
G1 X40.466 Y42.387 E25.14827
G1 X40.808 Y42.184 E25.15871
G1 X41.344 Y41.904 E25.17459
G1 X42.080 Y41.585 E25.19567
G1 X43.027 Y41.277 E25.22180
G1 X43.814 Y41.102 E25.24297
G1 X44.799 Y40.977 E25.26906
G1 X45.448 Y40.952 E25.28611
G1 X168.551 Y40.952 E28.51854
G1 X169.204 Y40.977 E28.53569
G1 X169.802 Y41.041 E28.55148
G1 X170.386 Y41.140 E28.56705
G1 X170.970 Y41.277 E28.58280
G1 X171.548 Y41.451 E28.59864
G1 X172.114 Y41.662 E28.61451
G1 X172.659 Y41.905 E28.63017
G1 X173.190 Y42.182 E28.64590
G1 X173.708 Y42.497 E28.66181
G1 X174.198 Y42.838 E28.67750
G1 X174.670 Y43.212 E28.69331
G1 X175.111 Y43.610 E28.70891
G1 X175.530 Y44.038 E28.72463
G1 X175.922 Y44.492 E28.74038
G1 X176.286 Y44.972 E28.75620
G1 X176.618 Y45.473 E28.77198
G1 X176.916 Y45.990 E28.78765
G1 X177.184 Y46.529 E28.80346
G1 X177.415 Y47.080 E28.81915
G1 X177.614 Y47.651 E28.83503
G1 X177.773 Y48.223 E28.85061
G1 X177.898 Y48.811 E28.86639
G1 X177.985 Y49.403 E28.88211
G1 X178.036 Y50.006 E28.89800
G1 X178.046 Y115.654 E30.62179
G1 X178.023 Y116.201 E30.63616
G1 X177.960 Y116.794 E30.65182
G1 X177.859 Y117.391 E30.66773
G1 X177.722 Y117.975 E30.68347
G1 X177.548 Y118.550 E30.69923
G1 X177.338 Y119.113 E30.71502
G1 X177.096 Y119.658 E30.73068
G1 X176.818 Y120.189 E30.74642
G1 X176.507 Y120.703 E30.76219
G1 X176.164 Y121.195 E30.77794
G1 X175.792 Y121.665 E30.79369
G1 X175.388 Y122.113 E30.80951
G1 X174.967 Y122.525 E30.82499
G1 X174.503 Y122.925 E30.84108
G1 X174.028 Y123.286 E30.85673
G1 X173.530 Y123.617 E30.87244
G1 X173.006 Y123.918 E30.88831
G1 X172.475 Y124.182 E30.90388
G1 X171.929 Y124.411 E30.91943
G1 X171.353 Y124.612 E30.93544
G1 X170.778 Y124.773 E30.95111
G1 X170.192 Y124.897 E30.96685
G1 X169.502 Y124.994 E30.98514
G1 X168.654 Y125.046 E31.00747
G1 X45.449 Y125.048 E34.24258
G1 X44.783 Y125.022 E34.26008
G1 X44.193 Y124.959 E34.27565
G1 X43.606 Y124.859 E34.29128
G1 X43.022 Y124.721 E34.30705
G1 X42.440 Y124.545 E34.32301
G1 X41.887 Y124.339 E34.33850
G1 X41.347 Y124.098 E34.35404
G1 X40.806 Y123.815 E34.37005
G1 X40.304 Y123.511 E34.38549
G1 X39.811 Y123.168 E34.40125
G1 X39.341 Y122.796 E34.41699
G1 X38.885 Y122.386 E34.43309
G1 X38.474 Y121.966 E34.44853
G1 X38.073 Y121.502 E34.46462
G1 X37.714 Y121.027 E34.48026
G1 X37.385 Y120.532 E34.49586
G1 X37.077 Y119.998 E34.51206
G1 X36.817 Y119.471 E34.52748
G1 X36.587 Y118.924 E34.54307
G1 X36.391 Y118.363 E34.55868
G1 X36.226 Y117.776 E34.57468
G1 X36.099 Y117.174 E34.59082
G1 X35.988 Y116.315 E34.61358
G1 X35.954 Y115.653 E34.63097
G1 X35.952 Y50.448 E36.34314
G1 X35.965 Y49.996 E36.35502
G1 X36.039 Y49.210 E36.37573
G1 X36.138 Y48.618 E36.39150
G1 X36.227 Y48.223 E36.40213
G1 X36.454 Y47.445 E36.42341
G1 X36.817 Y46.528 E36.44931
G1 X37.181 Y45.812 E36.47040
G1 X37.714 Y44.972 E36.49653
G1 X38.210 Y44.332 E36.51778
G1 X38.608 Y43.891 E36.53339
G1 X39.000 Y43.505 E36.54783
G1 X39.327 Y43.776 F7800.000
G1 F1800
G1 X40.059 Y43.172 E36.57276
G1 X40.686 Y42.745 E36.59266
G1 X41.529 Y42.282 E36.61791
G1 X42.229 Y41.979 E36.63795
G1 X43.138 Y41.683 E36.66304
G1 X43.886 Y41.516 E36.68317
G1 X44.832 Y41.397 E36.70821
G1 X45.452 Y41.373 E36.72449
G1 X168.548 Y41.373 E39.95675
G1 X169.170 Y41.397 E39.97311
G1 X169.742 Y41.458 E39.98821
G1 X170.301 Y41.552 E40.00308
G1 X170.860 Y41.683 E40.01815
G1 X171.411 Y41.849 E40.03328
G1 X171.953 Y42.051 E40.04845
G1 X172.473 Y42.283 E40.06342
G1 X172.981 Y42.548 E40.07846
G1 X173.476 Y42.848 E40.09367
G1 X173.945 Y43.175 E40.10866
G1 X174.396 Y43.532 E40.12377
G1 X174.818 Y43.913 E40.13869
G1 X175.218 Y44.321 E40.15371
G1 X175.593 Y44.755 E40.16877
G1 X175.941 Y45.214 E40.18389
G1 X176.259 Y45.693 E40.19897
G1 X176.544 Y46.187 E40.21396
G1 X176.800 Y46.702 E40.22907
G1 X177.021 Y47.229 E40.24407
G1 X177.211 Y47.775 E40.25924
G1 X177.364 Y48.321 E40.27414
G1 X177.483 Y48.883 E40.28922
G1 X177.567 Y49.449 E40.30425
G1 X177.615 Y50.026 E40.31944
G1 X177.625 Y115.644 E42.04245
G1 X177.603 Y116.168 E42.05621
G1 X177.544 Y116.735 E42.07119
G1 X177.447 Y117.306 E42.08639
G1 X177.316 Y117.864 E42.10144
G1 X177.150 Y118.413 E42.11651
G1 X176.949 Y118.952 E42.13160
G1 X176.718 Y119.473 E42.14657
G1 X176.452 Y119.980 E42.16161
G1 X176.155 Y120.472 E42.17669
G1 X175.827 Y120.942 E42.19174
G1 X175.471 Y121.392 E42.20680
G1 X175.086 Y121.820 E42.22192
G1 X174.683 Y122.214 E42.23673
G1 X174.240 Y122.597 E42.25209
G1 X173.786 Y122.941 E42.26706
G1 X173.310 Y123.257 E42.28208
G1 X172.809 Y123.546 E42.29724
G1 X172.301 Y123.798 E42.31213
G1 X171.780 Y124.018 E42.32700
G1 X171.229 Y124.210 E42.34230
G1 X170.680 Y124.363 E42.35728
G1 X170.120 Y124.483 E42.37232
G1 X169.462 Y124.575 E42.38976
G1 X168.644 Y124.625 E42.41129
G1 X45.452 Y124.627 E45.64605
G1 X44.817 Y124.602 E45.66275
G1 X44.253 Y124.542 E45.67763
G1 X43.692 Y124.447 E45.69258
G1 X43.133 Y124.315 E45.70765
G1 X42.577 Y124.147 E45.72290
G1 X42.049 Y123.950 E45.73772
G1 X41.532 Y123.720 E45.75257
G1 X41.015 Y123.450 E45.76787
G1 X40.535 Y123.158 E45.78263
G1 X40.063 Y122.831 E45.79770
G1 X39.614 Y122.476 E45.81274
G1 X39.178 Y122.084 E45.82813
G1 X38.785 Y121.682 E45.84289
G1 X38.402 Y121.239 E45.85827
G1 X38.058 Y120.785 E45.87322
G1 X37.744 Y120.312 E45.88814
G1 X37.450 Y119.801 E45.90362
G1 X37.201 Y119.298 E45.91836
G1 X36.981 Y118.775 E45.93327
G1 X36.793 Y118.238 E45.94819
G1 X36.636 Y117.677 E45.96348
G1 X36.514 Y117.103 E45.97890
G1 X36.407 Y116.275 E46.00083
G1 X36.375 Y115.644 E46.01742
G1 X36.385 Y50.016 E47.74067
G1 X36.456 Y49.269 E47.76037
G1 X36.551 Y48.703 E47.77544
G1 X36.636 Y48.321 E47.78571
G1 X36.852 Y47.582 E47.80594
G1 X37.201 Y46.701 E47.83081
G1 X37.547 Y46.021 E47.85086
G1 X38.059 Y45.214 E47.87594
G1 X38.530 Y44.606 E47.89615
G1 X38.911 Y44.184 E47.91107
G1 X39.283 Y43.817 E47.92480
G1 X39.610 Y44.088 F7800.000
G1 F1800
G1 X40.312 Y43.508 E47.94870
G1 X40.907 Y43.104 E47.96757
G1 X41.714 Y42.660 E47.99177
G1 X42.378 Y42.373 E48.01077
G1 X43.249 Y42.090 E48.03481
G1 X43.958 Y41.931 E48.05390
G1 X44.865 Y41.817 E48.07790
G1 X45.455 Y41.794 E48.09340
G1 X168.545 Y41.794 E51.32548
G1 X169.137 Y41.817 E51.34106
G1 X169.683 Y41.874 E51.35546
G1 X170.216 Y41.964 E51.36966
G1 X170.749 Y42.089 E51.38403
G1 X171.275 Y42.248 E51.39846
G1 X171.791 Y42.440 E51.41293
G1 X172.288 Y42.661 E51.42721
G1 X172.772 Y42.914 E51.44155
G1 X173.245 Y43.200 E51.45605
G1 X173.692 Y43.511 E51.47036
G1 X174.122 Y43.852 E51.48477
G1 X174.525 Y44.215 E51.49900
G1 X174.907 Y44.605 E51.51334
G1 X175.264 Y45.019 E51.52770
G1 X175.597 Y45.456 E51.54212
G1 X175.900 Y45.913 E51.55651
G1 X176.172 Y46.384 E51.57080
G1 X176.416 Y46.876 E51.58521
G1 X176.627 Y47.378 E51.59952
G1 X176.808 Y47.898 E51.61400
G1 X176.954 Y48.420 E51.62821
G1 X177.068 Y48.956 E51.64260
G1 X177.148 Y49.496 E51.65693
G1 X177.194 Y50.045 E51.67142
G1 X177.204 Y115.634 E53.39365
G1 X177.183 Y116.135 E53.40681
G1 X177.127 Y116.676 E53.42110
G1 X177.035 Y117.220 E53.43559
G1 X176.910 Y117.753 E53.44995
G1 X176.752 Y118.277 E53.46432
G1 X176.560 Y118.791 E53.47871
G1 X176.339 Y119.287 E53.49299
G1 X176.086 Y119.772 E53.50734
G1 X175.803 Y120.240 E53.52173
G1 X175.491 Y120.689 E53.53608
G1 X175.151 Y121.118 E53.55045
G1 X174.783 Y121.526 E53.56487
G1 X174.399 Y121.903 E53.57899
G1 X173.977 Y122.268 E53.59365
G1 X173.544 Y122.596 E53.60792
G1 X173.090 Y122.898 E53.62225
G1 X172.612 Y123.174 E53.63671
G1 X172.128 Y123.414 E53.65092
G1 X171.630 Y123.624 E53.66510
G1 X171.105 Y123.807 E53.67970
G1 X170.581 Y123.954 E53.69398
G1 X170.047 Y124.068 E53.70833
G1 X169.422 Y124.156 E53.72491
G1 X168.634 Y124.204 E53.74564
G1 X45.455 Y124.206 E56.98006
G1 X44.851 Y124.182 E56.99594
G1 X44.313 Y124.125 E57.01015
G1 X43.778 Y124.034 E57.02441
G1 X43.245 Y123.909 E57.03878
G1 X42.715 Y123.749 E57.05332
G1 X42.210 Y123.561 E57.06746
G1 X41.717 Y123.341 E57.08163
G1 X41.224 Y123.084 E57.09623
G1 X40.765 Y122.806 E57.11032
G1 X40.316 Y122.494 E57.12469
G1 X39.887 Y122.155 E57.13904
G1 X39.471 Y121.782 E57.15370
G1 X39.096 Y121.398 E57.16779
G1 X38.731 Y120.976 E57.18245
G1 X38.403 Y120.543 E57.19672
G1 X38.103 Y120.092 E57.21095
G1 X37.822 Y119.605 E57.22570
G1 X37.585 Y119.125 E57.23977
G1 X37.374 Y118.626 E57.25400
G1 X37.195 Y118.114 E57.26823
G1 X37.045 Y117.579 E57.28282
G1 X36.929 Y117.031 E57.29752
G1 X36.826 Y116.234 E57.31861
G1 X36.796 Y115.634 E57.33441
G1 X36.806 Y50.036 E59.05687
G1 X36.873 Y49.328 E59.07555
G1 X37.045 Y48.420 E59.09982
G1 X37.250 Y47.719 E59.11900
G1 X37.585 Y46.875 E59.14285
G1 X37.913 Y46.229 E59.16186
G1 X38.404 Y45.456 E59.18589
G1 X38.850 Y44.879 E59.20505
G1 X39.213 Y44.477 E59.21929
G1 X39.566 Y44.129 E59.23230
G1 X39.893 Y44.400 F7800.000
G1 F1800
G1 X40.565 Y43.845 E59.25517
G1 X41.127 Y43.463 E59.27301
G1 X41.899 Y43.038 E59.29616
G1 X42.527 Y42.767 E59.31412
G1 X43.360 Y42.496 E59.33712
G1 X44.031 Y42.346 E59.35516
G1 X44.898 Y42.237 E59.37813
G1 X45.458 Y42.215 E59.39284
G1 X168.541 Y42.215 E62.62475
G1 X169.104 Y42.237 E62.63955
G1 X169.623 Y42.291 E62.65325
G1 X170.131 Y42.377 E62.66676
G1 X170.638 Y42.495 E62.68044
G1 X171.139 Y42.646 E62.69417
